X:1704
T:The Threshers
M:C|
L:1/8
N:"collected by McFadden"
B:O'Neill's 1704
R:Hornpipe
Z:"Transcribed by Bob Safranek, rjs@gsp.org"
K:D
   (FG) | A2 (Bc) dcdB |     AdFD   EA,B,C | DCDE FEFG | dBAF  E2 (FG) |
          A^GAc   dcdB |     AdFD   EA,B,C | ABdB AFEG | F2 D2 D2     :|
|: (de) | fa{b}af bfag | ((3fga) ec  dcBA  | FABc dcdb | afed  e2 (fg) |
          afbf    agfe | ((3fga) ec  dcBA  | FAdA BGEG | F2 D2 D2     :|


